resources/svg/solid/coffee.svg

<svg xmlns="http://www.w3.org/2000/svg" fill="currentColor" stroke="none" viewBox="0 0 24 24"><path d="M5 2H7V5H5zM9 2H11V5H9zM13 2H15V5H13zM19 9h-2V8c0-.553-.447-1-1-1H4C3.447 7 3 7.447 3 8v10c0 1.657 1.343 3 3 3h8c1.657 0 3-1.343 3-3h2c1.103 0 2-.897 2-2v-5C21 9.897 20.103 9 19 9zM17 16v-5h2l.002 5H17z"/></svg>

<svg xmlns="http://www.w3.org/2000/svg" fill="currentColor" stroke="none" viewBox="0 0 24 24"><path d="M5 2h2v3H5zm4 0h2v3H9zm4 0h2v3h-2zm6 7h-2V8a1 1 0 0 0-1-1H4a1 1 0 0 0-1 1v10a3 3 0 0 0 3 3h8a3 3 0 0 0 3-3h2c1.103 0 2-.897 2-2v-5c0-1.103-.897-2-2-2zm-2 7v-5h2l.002 5H17z"/></svg>
